!! Cantigas de Santa Maria, No. 15
!! Transcribed by Higinio Angle/s
!! From Higinio Angle/s, "La Mu/sica de las Cantigas de Santa Mari/a
!! del rey Alfonso el Sabio", Barcelona: Biblioteca Central, 1943
**kern	**text
*M3/4	*Galician
*k[b-]	*
=1	.
2f	To-
4g	-do-
=2	.
2a	-os
4b-	san-
=3	.
2a	-tos
(8g	que
8f)	.
=4	.
4g	son
2a	no
=5	.
4d	ce-
2c,	o,
=6	.
2f	de
4g	ser-
=7	.
2a	-vir
4b-	mui-
=8	.
2a	to
8g	an
8f	.
=9	.
4g	gran
(4a	sa-
4b-)	.
=10	.
2.a,	-bor
=11	.
2f	San-
4g	-ta
=12	.
2a	Ma-
4b-	-ri-
=13	.
2a	-a,
(8g	a
8f)	.
=14	.
4g	Vir-
2a	-gen
=15	.
4d	Ma-
2c	-dre
=16	.
2f	de
4g	Je-
=17	.
2a	-so-
4b-	-cris-
=18	.
2a	-to
(8g	nos-
8f)	.
=19	.
4g	-tro
2a	Se-
=20	.
2.d,	-nnor.
=21	.
2dd	E
4cc	de
=22	.
2dd	lle
4cc	se-
=23	.
2a	-e-
2cc	-ren
=24	.
4a	ben
2b-	man-
=25	.
4a	-da-
2g,	-dos
=26	.
2g	es-
4a	-to
=27	.
(4b-	de
4cc)	.
4a	reit'
=28	.
(4g	e
4f)	.
(8g	ra-
8f)	.
=29	.
4g	-zon
2a	a-
=30	.
2.a,	-duz;
=31	.
2dd	pois
4cc	que
=32	.
2dd	por
4cc	e-
=33	.
2a	-les
2cc	en-
=34	.
4a	-cra-
2b-	-ve-
=35	.
4a	-la-
2g,	-dos
=36	.
2g	ou-
4a	-ve
=37	.
(4b-	seu
4cc)	.
4a	Fill'
=38	.
(4g	os
4f)	.
(8g	nem-
8f)	.
=39	.
4g	-bros
2a	na
=40	.
2.d,	cruz.
=41	.
2a	De-
4g	-mais
=42	.
2a	per
4b-	e-
=43	.
2a	-la
(8g	san-
8f)	.
=44	.
4g	-tos
2a	cha-
=45	.
4d	-ma-
2c,	-dos
=46	.
2f	son,
4g	et
=47	.
2a	de
4b-	to-
=48	.
2a	-dos
(8g	e/
8f)	.
=49	.
4g	lum'
(4a	e
4b-)	.
=50	.
2.a,	luz;
=51	.
2f	por-
4g	-end
=52	.
2a	es-
4b-	-tan
=53	.
2a	sempr'
(8g	ap-
8f)	.
=54	.
4g	-pa-
2a	-re-
=55	.
4d	-lla-
2c,	-dos
=56	.
2f	de
4g	fa-
=57	.
2a	-zer
4b-	quan-
=58	.
2a	-to
(8g	ll'en
8f)	.
=59	.
4g	pra-
2a	-zer
=60	.
2.d	for.
==	==
*-	*-
